images/50093306.svg

<?xml version="1.0" encoding="UTF-8"?>
<svg xmlns="http://www.w3.org/2000/svg" xmlns:xlink="http://www.w3.org/1999/xlink" width="300pt" height="300pt" viewBox="0 0 300 300" version="1.1">
<defs>
<g>
<symbol overflow="visible" id="glyph0-0">
<path style="stroke:none;" d="M 0.453125 1.59375 L 0.453125 -6.34375 L 4.953125 -6.34375 L 4.953125 1.59375 Z M 0.953125 1.09375 L 4.453125 1.09375 L 4.453125 -5.84375 L 0.953125 -5.84375 Z M 0.953125 1.09375 "/>
</symbol>
<symbol overflow="visible" id="glyph0-1">
<path style="stroke:none;" d="M 3.546875 -5.953125 C 2.898438 -5.953125 2.382812 -5.710938 2 -5.234375 C 1.625 -4.753906 1.4375 -4.101562 1.4375 -3.28125 C 1.4375 -2.445312 1.625 -1.789062 2 -1.3125 C 2.382812 -0.832031 2.898438 -0.59375 3.546875 -0.59375 C 4.191406 -0.59375 4.703125 -0.832031 5.078125 -1.3125 C 5.453125 -1.789062 5.640625 -2.445312 5.640625 -3.28125 C 5.640625 -4.101562 5.453125 -4.753906 5.078125 -5.234375 C 4.703125 -5.710938 4.191406 -5.953125 3.546875 -5.953125 Z M 3.546875 -6.6875 C 4.460938 -6.6875 5.195312 -6.375 5.75 -5.75 C 6.300781 -5.132812 6.578125 -4.3125 6.578125 -3.28125 C 6.578125 -2.238281 6.300781 -1.410156 5.75 -0.796875 C 5.195312 -0.179688 4.460938 0.125 3.546875 0.125 C 2.617188 0.125 1.878906 -0.179688 1.328125 -0.796875 C 0.773438 -1.410156 0.5 -2.238281 0.5 -3.28125 C 0.5 -4.3125 0.773438 -5.132812 1.328125 -5.75 C 1.878906 -6.375 2.617188 -6.6875 3.546875 -6.6875 Z M 3.546875 -6.6875 "/>
</symbol>
<symbol overflow="visible" id="glyph0-2">
<path style="stroke:none;" d="M 0.890625 -6.5625 L 1.765625 -6.5625 L 1.765625 -3.875 L 5 -3.875 L 5 -6.5625 L 5.890625 -6.5625 L 5.890625 0 L 5 0 L 5 -3.125 L 1.765625 -3.125 L 1.765625 0 L 0.890625 0 Z M 0.890625 -6.5625 "/>
</symbol>
<symbol overflow="visible" id="glyph0-3">
<path style="stroke:none;" d="M 0.890625 -6.5625 L 2.078125 -6.5625 L 4.984375 -1.078125 L 4.984375 -6.5625 L 5.84375 -6.5625 L 5.84375 0 L 4.65625 0 L 1.75 -5.484375 L 1.75 0 L 0.890625 0 Z M 0.890625 -6.5625 "/>
</symbol>
<symbol overflow="visible" id="glyph1-0">
<path style="stroke:none;" d="M 0.40625 1.421875 L 0.40625 -5.640625 L 4.40625 -5.640625 L 4.40625 1.421875 Z M 0.84375 0.96875 L 3.953125 0.96875 L 3.953125 -5.1875 L 0.84375 -5.1875 Z M 0.84375 0.96875 "/>
</symbol>
<symbol overflow="visible" id="glyph1-1">
<path style="stroke:none;" d="M 1.53125 -0.671875 L 4.296875 -0.671875 L 4.296875 0 L 0.59375 0 L 0.59375 -0.671875 C 0.882812 -0.972656 1.289062 -1.382812 1.8125 -1.90625 C 2.332031 -2.4375 2.65625 -2.773438 2.78125 -2.921875 C 3.039062 -3.203125 3.21875 -3.441406 3.3125 -3.640625 C 3.414062 -3.835938 3.46875 -4.03125 3.46875 -4.21875 C 3.46875 -4.53125 3.359375 -4.785156 3.140625 -4.984375 C 2.921875 -5.179688 2.640625 -5.28125 2.296875 -5.28125 C 2.046875 -5.28125 1.78125 -5.234375 1.5 -5.140625 C 1.226562 -5.054688 0.9375 -4.925781 0.625 -4.75 L 0.625 -5.546875 C 0.945312 -5.679688 1.242188 -5.78125 1.515625 -5.84375 C 1.796875 -5.90625 2.050781 -5.9375 2.28125 -5.9375 C 2.882812 -5.9375 3.363281 -5.785156 3.71875 -5.484375 C 4.082031 -5.179688 4.265625 -4.78125 4.265625 -4.28125 C 4.265625 -4.039062 4.21875 -3.8125 4.125 -3.59375 C 4.03125 -3.375 3.867188 -3.117188 3.640625 -2.828125 C 3.566406 -2.753906 3.351562 -2.535156 3 -2.171875 C 2.65625 -1.816406 2.164062 -1.316406 1.53125 -0.671875 Z M 1.53125 -0.671875 "/>
</symbol>
<symbol overflow="visible" id="glyph1-2">
<path style="stroke:none;" d="M 3.6875 -5.015625 L 3.6875 -2.84375 L 5.859375 -2.84375 L 5.859375 -2.171875 L 3.6875 -2.171875 L 3.6875 0 L 3.03125 0 L 3.03125 -2.171875 L 0.84375 -2.171875 L 0.84375 -2.84375 L 3.03125 -2.84375 L 3.03125 -5.015625 Z M 3.6875 -5.015625 "/>
</symbol>
</g>
</defs>
<g id="surface525">
<rect x="0" y="0" width="300" height="300" style="fill:rgb(100%,100%,100%);fill-opacity:1;stroke:none;"/>
<path style="fill:none;stroke-width:1.2;stroke-linecap:butt;stroke-linejoin:miter;stroke:rgb(0%,0%,0%);stroke-opacity:1;stroke-miterlimit:10;" d="M 129.855469 131.164062 L 129.332031 122.261719 "/>
<path style="fill:none;stroke-width:1.2;stroke-linecap:butt;stroke-linejoin:miter;stroke:rgb(100%,0%,0%);stroke-opacity:1;stroke-miterlimit:10;" d="M 129.332031 122.261719 L 128.804688 113.359375 "/>
<path style="fill:none;stroke-width:1.2;stroke-linecap:butt;stroke-linejoin:miter;stroke:rgb(0%,0%,0%);stroke-opacity:1;stroke-miterlimit:10;" d="M 125.667969 131.410156 L 125.140625 122.507812 "/>
<path style="fill:none;stroke-width:1.2;stroke-linecap:butt;stroke-linejoin:miter;stroke:rgb(100%,0%,0%);stroke-opacity:1;stroke-miterlimit:10;" d="M 125.140625 122.507812 L 124.617188 113.605469 "/>
<path style="fill:none;stroke-width:1.2;stroke-linecap:butt;stroke-linejoin:miter;stroke:rgb(0%,0%,0%);stroke-opacity:1;stroke-miterlimit:10;" d="M 127.761719 131.285156 L 112.867188 141.097656 "/>
<path style="fill:none;stroke-width:1.2;stroke-linecap:butt;stroke-linejoin:miter;stroke:rgb(0%,0%,100%);stroke-opacity:1;stroke-miterlimit:10;" d="M 143.707031 139.277344 L 135.734375 135.28125 "/>
<path style="fill:none;stroke-width:1.2;stroke-linecap:butt;stroke-linejoin:miter;stroke:rgb(0%,0%,0%);stroke-opacity:1;stroke-miterlimit:10;" d="M 135.734375 135.28125 L 127.761719 131.285156 "/>
<path style=" stroke:none;fill-rule:nonzero;fill:rgb(100%,100%,100%);fill-opacity:1;" d="M 122.710938 107.980469 L 130.710938 107.980469 L 130.710938 118.980469 L 122.710938 118.980469 Z M 122.710938 107.980469 "/>
<g style="fill:rgb(100%,0%,0%);fill-opacity:1;">
  <use xlink:href="#glyph0-1" x="122.710938" y="116.643555"/>
</g>
<path style="fill:none;stroke-width:1;stroke-linecap:butt;stroke-linejoin:miter;stroke:rgb(0%,0%,0%);stroke-opacity:1;stroke-miterlimit:10;" d="M 112.867188 141.097656 L 112.867188 141.097656 M 110.460938 139.308594 L 109.992188 140.238281 M 108.054688 137.519531 L 107.121094 139.382812 M 105.644531 135.726562 L 104.246094 138.523438 M 103.238281 133.9375 L 101.371094 137.667969 M 100.832031 132.148438 L 98.496094 136.808594 M 98.425781 130.359375 L 95.621094 135.949219 M 98.335938 130.292969 L 95.515625 135.917969 "/>
<path style="fill:none;stroke-width:1.2;stroke-linecap:butt;stroke-linejoin:miter;stroke:rgb(0%,0%,0%);stroke-opacity:1;stroke-miterlimit:10;" d="M 112.867188 141.097656 L 113.394531 150 "/>
<path style="fill:none;stroke-width:1.2;stroke-linecap:butt;stroke-linejoin:miter;stroke:rgb(100%,0%,0%);stroke-opacity:1;stroke-miterlimit:10;" d="M 113.394531 150 L 113.917969 158.902344 "/>
<path style="fill:none;stroke-width:1.2;stroke-linecap:butt;stroke-linejoin:miter;stroke:rgb(0%,0%,0%);stroke-opacity:1;stroke-miterlimit:10;" d="M 96.925781 133.105469 L 95.875 115.300781 "/>
<path style="fill:none;stroke-width:1.2;stroke-linecap:butt;stroke-linejoin:miter;stroke:rgb(0%,0%,0%);stroke-opacity:1;stroke-miterlimit:10;" d="M 92.628906 131.574219 L 91.789062 117.328125 "/>
<path style="fill:none;stroke-width:1.2;stroke-linecap:butt;stroke-linejoin:miter;stroke:rgb(0%,0%,0%);stroke-opacity:1;stroke-miterlimit:10;" d="M 82.03125 142.917969 L 96.925781 133.105469 "/>
<path style="fill:none;stroke-width:1.2;stroke-linecap:butt;stroke-linejoin:miter;stroke:rgb(0%,0%,0%);stroke-opacity:1;stroke-miterlimit:10;" d="M 95.875 115.300781 L 79.929688 107.308594 "/>
<path style="fill:none;stroke-width:1.2;stroke-linecap:butt;stroke-linejoin:miter;stroke:rgb(0%,0%,0%);stroke-opacity:1;stroke-miterlimit:10;" d="M 79.929688 107.308594 L 65.035156 117.121094 "/>
<path style="fill:none;stroke-width:1.2;stroke-linecap:butt;stroke-linejoin:miter;stroke:rgb(0%,0%,0%);stroke-opacity:1;stroke-miterlimit:10;" d="M 80.75 111.796875 L 68.835938 119.644531 "/>
<path style="fill:none;stroke-width:1.2;stroke-linecap:butt;stroke-linejoin:miter;stroke:rgb(0%,0%,0%);stroke-opacity:1;stroke-miterlimit:10;" d="M 65.035156 117.121094 L 66.085938 134.925781 "/>
<path style="fill:none;stroke-width:1.2;stroke-linecap:butt;stroke-linejoin:miter;stroke:rgb(0%,0%,0%);stroke-opacity:1;stroke-miterlimit:10;" d="M 66.085938 134.925781 L 82.03125 142.917969 "/>
<path style="fill:none;stroke-width:1.2;stroke-linecap:butt;stroke-linejoin:miter;stroke:rgb(0%,0%,0%);stroke-opacity:1;stroke-miterlimit:10;" d="M 69.5625 131.972656 L 82.316406 138.367188 "/>
<path style="fill:none;stroke-width:1.2;stroke-linecap:butt;stroke-linejoin:miter;stroke:rgb(0%,0%,0%);stroke-opacity:1;stroke-miterlimit:10;" d="M 66.085938 134.925781 L 51.195312 144.738281 "/>
<path style="fill:none;stroke-width:1.2;stroke-linecap:butt;stroke-linejoin:miter;stroke:rgb(0%,0%,0%);stroke-opacity:1;stroke-miterlimit:10;" d="M 51.195312 144.738281 L 43.222656 140.742188 "/>
<path style="fill:none;stroke-width:1.2;stroke-linecap:butt;stroke-linejoin:miter;stroke:rgb(0%,0%,100%);stroke-opacity:1;stroke-miterlimit:10;" d="M 43.222656 140.742188 L 35.25 136.746094 "/>
<path style="fill:none;stroke-width:1.2;stroke-linecap:butt;stroke-linejoin:miter;stroke:rgb(0%,0%,0%);stroke-opacity:1;stroke-miterlimit:10;" d="M 49.097656 144.859375 L 49.625 153.761719 "/>
<path style="fill:none;stroke-width:1.2;stroke-linecap:butt;stroke-linejoin:miter;stroke:rgb(0%,0%,100%);stroke-opacity:1;stroke-miterlimit:10;" d="M 49.625 153.761719 L 50.148438 162.664062 "/>
<path style="fill:none;stroke-width:1.2;stroke-linecap:butt;stroke-linejoin:miter;stroke:rgb(0%,0%,0%);stroke-opacity:1;stroke-miterlimit:10;" d="M 53.289062 144.613281 L 53.8125 153.515625 "/>
<path style="fill:none;stroke-width:1.2;stroke-linecap:butt;stroke-linejoin:miter;stroke:rgb(0%,0%,100%);stroke-opacity:1;stroke-miterlimit:10;" d="M 53.8125 153.515625 L 54.339844 162.417969 "/>
<path style=" stroke:none;fill-rule:nonzero;fill:rgb(100%,100%,100%);fill-opacity:1;" d="M 16.25 128.746094 L 35.25 128.746094 L 35.25 144.746094 L 16.25 144.746094 Z M 16.25 128.746094 "/>
<g style="fill:rgb(0%,0%,100%);fill-opacity:1;">
  <use xlink:href="#glyph0-2" x="16.25" y="137.40918"/>
</g>
<g style="fill:rgb(0%,0%,100%);fill-opacity:1;">
  <use xlink:href="#glyph1-1" x="23.264648" y="142.291992"/>
</g>
<g style="fill:rgb(0%,0%,100%);fill-opacity:1;">
  <use xlink:href="#glyph0-3" x="28.214844" y="137.40918"/>
</g>
<path style=" stroke:none;fill-rule:nonzero;fill:rgb(100%,100%,100%);fill-opacity:1;" d="M 39.246094 153.042969 L 65.246094 153.042969 L 65.246094 172.042969 L 39.246094 172.042969 Z M 39.246094 153.042969 "/>
<g style="fill:rgb(0%,0%,100%);fill-opacity:1;">
  <use xlink:href="#glyph0-3" x="39.246094" y="165.144531"/>
  <use xlink:href="#glyph0-2" x="46.223633" y="165.144531"/>
</g>
<g style="fill:rgb(0%,0%,100%);fill-opacity:1;">
  <use xlink:href="#glyph1-1" x="53.238281" y="170.027344"/>
</g>
<g style="fill:rgb(0%,0%,100%);fill-opacity:1;">
  <use xlink:href="#glyph1-2" x="58.188477" y="160.261719"/>
</g>
<path style="fill:none;stroke-width:1.2;stroke-linecap:butt;stroke-linejoin:miter;stroke:rgb(100%,0%,0%);stroke-opacity:1;stroke-miterlimit:10;" d="M 113.917969 158.902344 L 121.890625 162.898438 "/>
<path style="fill:none;stroke-width:1.2;stroke-linecap:butt;stroke-linejoin:miter;stroke:rgb(0%,0%,0%);stroke-opacity:1;stroke-miterlimit:10;" d="M 121.890625 162.898438 L 129.863281 166.894531 "/>
<path style=" stroke:none;fill-rule:nonzero;fill:rgb(100%,100%,100%);fill-opacity:1;" d="M 109.917969 153.402344 L 117.917969 153.402344 L 117.917969 164.402344 L 109.917969 164.402344 Z M 109.917969 153.402344 "/>
<g style="fill:rgb(100%,0%,0%);fill-opacity:1;">
  <use xlink:href="#glyph0-1" x="109.917969" y="162.06543"/>
</g>
<path style="fill:none;stroke-width:1.2;stroke-linecap:butt;stroke-linejoin:miter;stroke:rgb(0%,0%,0%);stroke-opacity:1;stroke-miterlimit:10;" d="M 129.863281 166.894531 L 130.914062 184.699219 "/>
<path style="fill:none;stroke-width:1.2;stroke-linecap:butt;stroke-linejoin:miter;stroke:rgb(0%,0%,0%);stroke-opacity:1;stroke-miterlimit:10;" d="M 129.863281 166.894531 L 144.757812 157.082031 "/>
<path style="fill:none;stroke-width:1.2;stroke-linecap:butt;stroke-linejoin:miter;stroke:rgb(0%,0%,0%);stroke-opacity:1;stroke-miterlimit:10;" d="M 133.660156 169.417969 L 145.574219 161.566406 "/>
<path style="fill:none;stroke-width:1.2;stroke-linecap:butt;stroke-linejoin:miter;stroke:rgb(0%,0%,0%);stroke-opacity:1;stroke-miterlimit:10;" d="M 130.914062 184.699219 L 146.859375 192.691406 "/>
<path style="fill:none;stroke-width:1.2;stroke-linecap:butt;stroke-linejoin:miter;stroke:rgb(0%,0%,0%);stroke-opacity:1;stroke-miterlimit:10;" d="M 134.390625 181.746094 L 147.144531 188.140625 "/>
<path style="fill:none;stroke-width:1.2;stroke-linecap:butt;stroke-linejoin:miter;stroke:rgb(0%,0%,0%);stroke-opacity:1;stroke-miterlimit:10;" d="M 146.859375 192.691406 L 161.75 182.878906 "/>
<path style="fill:none;stroke-width:1.2;stroke-linecap:butt;stroke-linejoin:miter;stroke:rgb(0%,0%,0%);stroke-opacity:1;stroke-miterlimit:10;" d="M 161.75 182.878906 L 160.699219 165.074219 "/>
<path style="fill:none;stroke-width:1.2;stroke-linecap:butt;stroke-linejoin:miter;stroke:rgb(0%,0%,0%);stroke-opacity:1;stroke-miterlimit:10;" d="M 157.457031 181.34375 L 156.617188 167.101562 "/>
<path style="fill:none;stroke-width:1.2;stroke-linecap:butt;stroke-linejoin:miter;stroke:rgb(0%,0%,0%);stroke-opacity:1;stroke-miterlimit:10;" d="M 144.757812 157.082031 L 160.699219 165.074219 "/>
<path style="fill:none;stroke-width:1.2;stroke-linecap:butt;stroke-linejoin:miter;stroke:rgb(0%,0%,0%);stroke-opacity:1;stroke-miterlimit:10;" d="M 144.757812 157.082031 L 144.230469 148.179688 "/>
<path style="fill:none;stroke-width:1.2;stroke-linecap:butt;stroke-linejoin:miter;stroke:rgb(0%,0%,100%);stroke-opacity:1;stroke-miterlimit:10;" d="M 144.230469 148.179688 L 143.707031 139.277344 "/>
<path style="fill:none;stroke-width:1.2;stroke-linecap:butt;stroke-linejoin:miter;stroke:rgb(0%,0%,100%);stroke-opacity:1;stroke-miterlimit:10;" d="M 143.707031 139.277344 L 151.152344 134.371094 "/>
<path style="fill:none;stroke-width:1.2;stroke-linecap:butt;stroke-linejoin:miter;stroke:rgb(0%,0%,0%);stroke-opacity:1;stroke-miterlimit:10;" d="M 151.152344 134.371094 L 158.601562 129.464844 "/>
<path style=" stroke:none;fill-rule:nonzero;fill:rgb(100%,100%,100%);fill-opacity:1;" d="M 140.707031 133.777344 L 147.707031 133.777344 L 147.707031 144.777344 L 140.707031 144.777344 Z M 140.707031 133.777344 "/>
<g style="fill:rgb(0%,0%,100%);fill-opacity:1;">
  <use xlink:href="#glyph0-3" x="140.707031" y="142.44043"/>
</g>
<path style="fill:none;stroke-width:1.2;stroke-linecap:butt;stroke-linejoin:miter;stroke:rgb(0%,0%,0%);stroke-opacity:1;stroke-miterlimit:10;" d="M 158.601562 129.464844 L 174.542969 137.457031 "/>
<path style="fill:none;stroke-width:1.2;stroke-linecap:butt;stroke-linejoin:miter;stroke:rgb(0%,0%,0%);stroke-opacity:1;stroke-miterlimit:10;" d="M 174.542969 137.457031 L 189.4375 127.648438 "/>
<path style="fill:none;stroke-width:1.2;stroke-linecap:butt;stroke-linejoin:miter;stroke:rgb(0%,0%,0%);stroke-opacity:1;stroke-miterlimit:10;" d="M 189.4375 127.648438 L 205.382812 135.640625 "/>
<path style="fill:none;stroke-width:1.2;stroke-linecap:butt;stroke-linejoin:miter;stroke:rgb(0%,0%,0%);stroke-opacity:1;stroke-miterlimit:10;" d="M 205.382812 135.640625 L 220.273438 125.828125 "/>
<path style="fill:none;stroke-width:1.2;stroke-linecap:butt;stroke-linejoin:miter;stroke:rgb(0%,0%,0%);stroke-opacity:1;stroke-miterlimit:10;" d="M 220.273438 125.828125 L 228.246094 129.824219 "/>
<path style="fill:none;stroke-width:1.2;stroke-linecap:butt;stroke-linejoin:miter;stroke:rgb(0%,0%,100%);stroke-opacity:1;stroke-miterlimit:10;" d="M 228.246094 129.824219 L 236.21875 133.820312 "/>
<path style="fill:none;stroke-width:1.2;stroke-linecap:butt;stroke-linejoin:miter;stroke:rgb(0%,0%,100%);stroke-opacity:1;stroke-miterlimit:10;" d="M 236.21875 133.820312 L 244.136719 129.71875 "/>
<path style="fill:none;stroke-width:1.2;stroke-linecap:butt;stroke-linejoin:miter;stroke:rgb(0%,0%,0%);stroke-opacity:1;stroke-miterlimit:10;" d="M 244.136719 129.71875 L 252.054688 125.617188 "/>
<path style="fill:none;stroke-width:1.2;stroke-linecap:butt;stroke-linejoin:miter;stroke:rgb(0%,0%,0%);stroke-opacity:1;stroke-miterlimit:10;" d="M 239.125 151.417969 L 237.671875 142.617188 "/>
<path style="fill:none;stroke-width:1.2;stroke-linecap:butt;stroke-linejoin:miter;stroke:rgb(0%,0%,100%);stroke-opacity:1;stroke-miterlimit:10;" d="M 237.671875 142.617188 L 236.21875 133.820312 "/>
<path style=" stroke:none;fill-rule:nonzero;fill:rgb(100%,100%,100%);fill-opacity:1;" d="M 226.21875 126.320312 L 247.21875 126.320312 L 247.21875 141.320312 L 226.21875 141.320312 Z M 226.21875 126.320312 "/>
<g style="fill:rgb(0%,0%,100%);fill-opacity:1;">
  <use xlink:href="#glyph0-3" x="226.21875" y="138.421875"/>
  <use xlink:href="#glyph0-2" x="233.196289" y="138.421875"/>
</g>
<g style="fill:rgb(0%,0%,100%);fill-opacity:1;">
  <use xlink:href="#glyph1-2" x="240.210938" y="133.539062"/>
</g>
<path style=" stroke:none;fill-rule:nonzero;fill:rgb(0%,0%,0%);fill-opacity:1;" d="M 252.054688 125.617188 L 257.84375 108.457031 L 251.617188 107.511719 Z M 252.054688 125.617188 "/>
<path style="fill:none;stroke-width:1.2;stroke-linecap:butt;stroke-linejoin:miter;stroke:rgb(0%,0%,0%);stroke-opacity:1;stroke-miterlimit:10;" d="M 252.054688 125.617188 L 264.75 138.148438 "/>
<path style="fill:none;stroke-width:1.2;stroke-linecap:butt;stroke-linejoin:miter;stroke:rgb(0%,0%,0%);stroke-opacity:1;stroke-miterlimit:10;" d="M 264.75 138.148438 L 256.757812 154.089844 "/>
<path style="fill:none;stroke-width:1.2;stroke-linecap:butt;stroke-linejoin:miter;stroke:rgb(0%,0%,0%);stroke-opacity:1;stroke-miterlimit:10;" d="M 256.757812 154.089844 L 239.125 151.417969 "/>
<path style="fill:none;stroke-width:1;stroke-linecap:butt;stroke-linejoin:miter;stroke:rgb(0%,0%,0%);stroke-opacity:1;stroke-miterlimit:10;" d="M 239.125 151.417969 L 239.125 151.417969 M 236.679688 153.152344 L 237.421875 153.886719 M 234.230469 154.890625 L 235.714844 156.355469 M 231.785156 156.625 L 234.011719 158.824219 M 229.339844 158.363281 L 232.308594 161.292969 M 226.894531 160.097656 L 230.601562 163.761719 M 224.445312 161.835938 L 228.898438 166.230469 M 224.355469 161.898438 L 228.835938 166.320312 "/>
</g>
</svg>

<svg xmlns="http://www.w3.org/2000/svg" xmlns:xlink="http://www.w3.org/1999/xlink" width="300pt" height="300pt" viewBox="0 0 300 300"><defs><symbol overflow="visible"><path d="M.453 1.594v-7.938h4.5v7.938zm.5-.5h3.5v-6.938h-3.5zm0 0"/></symbol><symbol overflow="visible" id="a"><path d="M3.547-5.953c-.65 0-1.164.242-1.547.72-.375.48-.563 1.13-.563 1.952 0 .835.188 1.49.563 1.967.383.48.898.72 1.547.72.644 0 1.156-.24 1.53-.72.376-.476.564-1.132.564-1.968 0-.822-.187-1.474-.562-1.954-.375-.477-.887-.72-1.53-.72zm0-.734c.914 0 1.648.312 2.203.937.55.617.828 1.438.828 2.47 0 1.042-.277 1.87-.828 2.483-.555.617-1.29.922-2.203.922-.93 0-1.668-.305-2.22-.922C.774-1.41.5-2.237.5-3.28c0-1.033.273-1.853.828-2.47.55-.625 1.29-.938 2.22-.938zm0 0"/></symbol><symbol overflow="visible" id="b"><path d="M.89-6.563h.876v2.688H5v-2.688h.89V0H5v-3.125H1.766V0H.89zm0 0"/></symbol><symbol overflow="visible" id="d"><path d="M.89-6.563H2.08l2.906 5.485v-5.484h.86V0H4.656L1.75-5.484V0H.89zm0 0"/></symbol><symbol overflow="visible"><path d="M.406 1.422V-5.64h4V1.42zM.844.97h3.11v-6.157H.843zm0 0"/></symbol><symbol overflow="visible" id="c"><path d="M1.53-.672h2.767V0H.594v-.672c.29-.3.695-.71 1.22-1.234.518-.532.842-.867.967-1.016.26-.28.44-.52.533-.72.1-.194.156-.39.156-.577 0-.31-.11-.565-.33-.764-.218-.196-.5-.297-.843-.297-.25 0-.516.046-.797.14-.273.085-.563.214-.875.39v-.797c.32-.133.617-.234.89-.297.282-.062.536-.093.766-.093.603 0 1.083.152 1.44.453.362.304.546.703.546 1.203 0 .24-.047.468-.14.686-.095.22-.26.477-.485.766-.074.074-.288.293-.64.656-.344.356-.836.856-1.47 1.5zm0 0"/></symbol><symbol overflow="visible" id="e"><path d="M3.688-5.016v2.172h2.17v.672H3.69V0H3.03v-2.172H.845v-.672H3.03v-2.172zm0 0"/></symbol></defs><g><path fill="#fff" d="M0 0h300v300H0z"/><path d="M129.855 131.164l-.523-8.902" stroke-width="1.2" stroke="#000" stroke-miterlimit="10" fill="none"/><path d="M129.332 122.262l-.527-8.903" stroke-width="1.2" stroke="#f00" stroke-miterlimit="10" fill="none"/><path d="M125.668 131.41l-.527-8.902" stroke-width="1.2" stroke="#000" stroke-miterlimit="10" fill="none"/><path d="M125.14 122.508l-.523-8.903" stroke-width="1.2" stroke="#f00" stroke-miterlimit="10" fill="none"/><path d="M127.762 131.285l-14.895 9.813" stroke-width="1.2" stroke="#000" stroke-miterlimit="10" fill="none"/><path d="M143.707 139.277l-7.973-3.996" stroke-width="1.2" stroke="#00f" stroke-miterlimit="10" fill="none"/><path d="M135.734 135.28l-7.972-3.995" stroke-width="1.2" stroke="#000" stroke-miterlimit="10" fill="none"/><path d="M122.71 107.98h8v11h-8zm0 0" fill="#fff"/><use xlink:href="#a" x="122.711" y="116.644" fill="#f00"/><path d="M112.867 141.098m-2.406-1.79l-.468.93m-1.937-2.718l-.934 1.863m-1.475-3.656l-1.4 2.796m-1.007-4.585l-1.867 3.73m-.538-5.52l-2.336 4.66m-.07-6.45l-2.805 5.59m2.716-5.655l-2.82 5.625" stroke="#000" stroke-miterlimit="10" fill="none"/><path d="M112.867 141.098l.528 8.902" stroke-width="1.2" stroke="#000" stroke-miterlimit="10" fill="none"/><path d="M113.395 150l.523 8.902" stroke-width="1.2" stroke="#f00" stroke-miterlimit="10" fill="none"/><path d="M96.926 133.105l-1.05-17.804M92.63 131.574l-.84-14.246M82.03 142.918l14.896-9.813M95.875 115.3l-15.945-7.99M79.93 107.31l-14.895 9.81M80.75 111.797l-11.914 7.848M65.035 117.12l1.05 17.806M66.086 134.926l15.945 7.992M69.563 131.973l12.753 6.394M66.086 134.926l-14.89 9.812M51.195 144.738l-7.972-3.996" stroke-width="1.2" stroke="#000" stroke-miterlimit="10" fill="none"/><path d="M43.223 140.742l-7.973-3.996" stroke-width="1.2" stroke="#00f" stroke-miterlimit="10" fill="none"/><path d="M49.098 144.86l.527 8.902" stroke-width="1.2" stroke="#000" stroke-miterlimit="10" fill="none"/><path d="M49.625 153.762l.523 8.902" stroke-width="1.2" stroke="#00f" stroke-miterlimit="10" fill="none"/><path d="M53.29 144.613l.523 8.903" stroke-width="1.2" stroke="#000" stroke-miterlimit="10" fill="none"/><path d="M53.813 153.516l.527 8.902" stroke-width="1.2" stroke="#00f" stroke-miterlimit="10" fill="none"/><path d="M16.25 128.746h19v16h-19zm0 0" fill="#fff"/><use xlink:href="#b" x="16.25" y="137.409" fill="#00f"/><use xlink:href="#c" x="23.265" y="142.292" fill="#00f"/><use xlink:href="#d" x="28.215" y="137.409" fill="#00f"/><path d="M39.246 153.043h26v19h-26zm0 0" fill="#fff"/><g fill="#00f"><use xlink:href="#d" x="39.246" y="165.145"/><use xlink:href="#b" x="46.224" y="165.145"/></g><use xlink:href="#c" x="53.238" y="170.027" fill="#00f"/><use xlink:href="#e" x="58.188" y="160.262" fill="#00f"/><path d="M113.918 158.902l7.973 3.996" stroke-width="1.2" stroke="#f00" stroke-miterlimit="10" fill="none"/><path d="M121.89 162.898l7.973 3.997" stroke-width="1.2" stroke="#000" stroke-miterlimit="10" fill="none"/><path d="M109.918 153.402h8v11h-8zm0 0" fill="#fff"/><use xlink:href="#a" x="109.918" y="162.065" fill="#f00"/><path d="M129.863 166.895l1.05 17.804M129.863 166.895l14.895-9.813M133.66 169.418l11.914-7.852M130.914 184.7l15.945 7.99M134.39 181.746l12.755 6.395M146.86 192.69l14.89-9.81M161.75 182.88l-1.05-17.806M157.457 181.344l-.84-14.242M144.758 157.082l15.94 7.992M144.758 157.082l-.528-8.902" stroke-width="1.2" stroke="#000" stroke-miterlimit="10" fill="none"/><path d="M144.23 148.18l-.523-8.903M143.707 139.277l7.445-4.906" stroke-width="1.2" stroke="#00f" stroke-miterlimit="10" fill="none"/><path d="M151.152 134.37l7.45-4.905" stroke-width="1.2" stroke="#000" stroke-miterlimit="10" fill="none"/><path d="M140.707 133.777h7v11h-7zm0 0" fill="#fff"/><use xlink:href="#d" x="140.707" y="142.44" fill="#00f"/><path d="M158.602 129.465l15.94 7.992M174.543 137.457l14.894-9.81M189.438 127.648l15.945 7.993M205.383 135.64l14.89-9.812M220.273 125.828l7.973 3.996" stroke-width="1.2" stroke="#000" stroke-miterlimit="10" fill="none"/><path d="M228.246 129.824l7.973 3.996M236.22 133.82l7.917-4.1" stroke-width="1.2" stroke="#00f" stroke-miterlimit="10" fill="none"/><path d="M244.137 129.72l7.918-4.103M239.125 151.418l-1.453-8.8" stroke-width="1.2" stroke="#000" stroke-miterlimit="10" fill="none"/><path d="M237.672 142.617l-1.453-8.797" stroke-width="1.2" stroke="#00f" stroke-miterlimit="10" fill="none"/><path d="M226.22 126.32h21v15h-21zm0 0" fill="#fff"/><g fill="#00f"><use xlink:href="#d" x="226.219" y="138.422"/><use xlink:href="#b" x="233.196" y="138.422"/></g><use xlink:href="#e" x="240.211" y="133.539" fill="#00f"/><path d="M252.055 125.617l5.79-17.16-6.228-.945zm0 0"/><path d="M252.055 125.617l12.695 12.53M264.75 138.148l-7.992 15.942M256.758 154.09l-17.633-2.672" stroke-width="1.2" stroke="#000" stroke-miterlimit="10" fill="none"/><path d="M239.125 151.418m-2.445 1.734l.742.735m-3.192 1.004l1.485 1.465m-3.93.27l2.227 2.2m-4.672-.462l2.97 2.93m-5.415-1.195l3.707 3.664m-6.157-1.926l4.453 4.394m-4.543-4.332l4.48 4.422" stroke="#000" stroke-miterlimit="10" fill="none"/></g></svg>
